X:936
T:Xiringelos
T:Ximielgueru de Geln El Gaiteru / Xiringelos / El candann)
R:Saltn
C:Tradicional
S:Msica Tradicional Asturiana, (C) Tello & Tito. Asturies, 2001.
S:http://pagina.de/MusTradAst <telloytito@asturies.org>
A:Asturies
Z:Tello
M:2/4
L:1/8
Q:1/4=200
K:A
|:ABcd|dcAc|cBGB|eaec|ABcd|dcAc|cBGB|Acec|
ABcd|dcAc|cBGB|eaec|ABcd|dcAc|cBGB|[1 A4:|[2 A3 d|
[K:D]|
|:fdfd|f2 fd|fdfd|g2 ge|f2 fd|e2 ec|ecef|d4:|
|fdAd|f2 fd|fdAd|gage|fdAd|ecAc|eaec|d4|
fdAd|f2 fd|fdAd|gage|fgfd|ecAc|eaec|d4|
|:afdf|gfdf|gafg|a2 f2|afdf|gfdf|gaec|[1 dB A2:|[2 dBAd|
|fdAd|f2 fd|fdAd|gage|fdAd|ecAc|efec|d4|
fdAd|f2 fd|fdAd|gage|fgfd|ecAc|efec|d4|
[K:A]|
|:ABcd|dcAc|cBGB|eaec|ABcd|dcAc|cBGB|Acec|
ABcd|dcAc|cBGB|eaec|ABcd|dcAc|cBGB|[1 A4:|[2 A3 d|
[K:D]|
|:fdfd|f2 fd|fdfd|g2 ge|f2 fd|e2 ec|ecef|d4:|
|fdAd|f2 fd|fdAd|gage|fdAd|ecAc|eaec|d4|
fdAd|f2 fd|fdAd|gage|fgfd|ecAc|eaec|d4|
|:afdf|gfdf|gafg|a2 f2|afdf|gfdf|gaec|[1 dB A2:|[2 dBAd|
|fdAd|f2 fd|fdAd|gage|fdAd|ecAc|efec|d4|
fdAd|f2 fd|fdAd|gage|fgfd|ecAc|efec|d z3|z4|z4|z4|
[K:A]|
|:c2 Ac|c2 Ac|c2 Ac|c2 Bc|d2 cB|ABcd|cBAG|ABcd|c2 A2|[1 A2 c2:|[2 A2 Bc||
d2 B2|B2 cd|fece|a2 gf|ecAc|d2 cd|fece|a2 gf|ecAc|d2 cB|
ABce|a2 gf|ecAc|d2 cd|fece|a2 gf|ecAc|d2 cB|A2 c2|
|:c2 Ac|c2 Ac|c2 Ac|c2 Bc|d2 cB|ABcd|cBAG|ABcd|c2 A2|[1 A2 c2:|[2 A2 Bc||
d2 B2|B2 cd|fece|a2 gf|ecAc|d2 cd|fece|a2 gf|ecAc|d2 cB|
ABce|a2 gf|ecAc|d2 cd|fece|a2 gf|ecAc|d2 cB|A2 c2|
|:c2 Ac|c2 Ac|c2 Ac|c2 Bc|d2 cB|ABcd|cBAG|ABcd|c2 A2|[1 A2 c2:|[2 A2 Bc||
d2 B2|B2 cd|fece|a2 gf|ecAc|d2 cd|fece|a2 gf|ecAc|d2 cB|
ABce|a2 gf|ecAc|d2 cd|fece|a2 gf|ecAc|d2 cB|
ABce|a2 gf|ecAc|d2 cd|fece|a2 gf|ecAc|d2 cB|
ABce|a2 gf|ecAc|d2 cd|fece|a2 gf|ecAc|d2 cB|A4|
